X:1
T: Charles John Forbes Esq. of Newe
C:Alexander Walker
R:Strathspey
Q: 128
K:A
M:4/4
L:1/16
|:C2|A,3E C3A EA,3 C3B,|E3A dcBA FB3 B3c|A,3E C3A EA,3 C3c|dcBA Ffed cA3 A2C2|
A,3E C3A EA,3 C3B,|E3A dcBA FB3 B3c|A,3E C3A EA,3 C3c|dcBA Ffed cA3 A2g2|
a3e c3A cde2 a4|fgag fedc fB3 B3g|a3e c3A ((3G2B2G2) A4|AGFE DEFD CA,3 A,3g|
a3e c3A cde2 a4|((3f2g2a2) ((3e2f2c2) fB3 B3d|ce3 a3c dB3 b3a|gb3 e3g aA3 A2:|
